assets/images/katrina-badge.svg

<?xml version="1.0" encoding="utf-8"?>
<!-- Generator: Adobe Illustrator 23.0.1, SVG Export Plug-In . SVG Version: 6.00 Build 0)  -->
<svg version="1.1" id="Layer_1" xmlns="http://www.w3.org/2000/svg" xmlns:xlink="http://www.w3.org/1999/xlink" x="0px" y="0px"
	 viewBox="0 0 188 42" style="enable-background:new 0 0 188 42;" xml:space="preserve">
<style type="text/css">
	.st0{fill:#D49F75;}
	.st1{fill-rule:evenodd;clip-rule:evenodd;fill:#D49F75;}
	.st2{enable-background:new    ;}
</style>
<path class="st0" d="M186,1c0.6,0,1,0.4,1,1v38c0,0.6-0.4,1-1,1H2c-0.6,0-1-0.4-1-1V2c0-0.6,0.4-1,1-1H186 M186,0H2C0.9,0,0,0.9,0,2
	v38c0,1.1,0.9,2,2,2h184c1.1,0,2-0.9,2-2V2C188,0.9,187.1,0,186,0L186,0z"/>
<title>awery</title>
<desc>Created with Sketch.</desc>
<g id="Welcome">
	<g id="katrina" transform="translate(-1189.000000, -916.000000)">
		<g id="awery" transform="translate(1190.000000, 917.000000)">
			<g id="awery_aviation_software_logotype_white" transform="translate(101.000000, 13.000000)">
				<polygon id="Path" class="st1" points="51,6.2 57.1,13.2 56,13.2 49.9,6.2 				"/>
				<rect x="33.5" y="0" class="st1" width="10.6" height="1"/>
				<rect x="63.7" y="6.6" class="st1" width="1" height="6.6"/>
				<polygon class="st1" points="30.7,0 29.8,0 25.4,11.2 21,0 16.5,11.2 12.1,0 11.2,0 16.5,13.2 20.9,2.2 25.4,13.2 				"/>
				<path class="st1" d="M52.5,0.9c1.5,0,2.7,1.2,2.7,2.7S54,6.2,52.5,6.2h-2.7l0.8,0.9h1.9c2,0,3.5-1.5,3.5-3.5S54.5,0,52.5,0h-6.2
					l0.8,0.9H52.5"/>
				<polygon class="st1" points="64.1,7.5 69.9,0 68.9,0 64.1,6.2 59.5,0 58.4,0 				"/>
				<polygon class="st1" points="5.7,9.7 1.8,9.7 2.2,8.8 5.4,8.8 				"/>
				<polygon class="st1" points="1.8,8.8 0,13.2 0.9,13.2 2.6,8.8 				"/>
				<polygon class="st1" points="5.3,0 2.1,8 3,8 5.3,2 9.7,13.2 10.6,13.2 				"/>
				<rect x="33.5" y="12.3" class="st1" width="10.6" height="1"/>
				<rect x="33.5" y="6.2" class="st1" width="10.6" height="1"/>
			</g>
			<g class="st2">
				<path class="st0" d="M17.1,22.1V25h-1.1v-7.9h2.3c0.5,0,0.9,0.1,1.3,0.2c0.4,0.1,0.7,0.3,0.9,0.5c0.2,0.2,0.4,0.5,0.5,0.8
					s0.2,0.6,0.2,1c0,0.4-0.1,0.7-0.2,1c-0.1,0.3-0.3,0.6-0.6,0.8s-0.6,0.4-0.9,0.5c-0.4,0.1-0.8,0.2-1.3,0.2H17.1z M17.1,21.2h1.3
					c0.3,0,0.6,0,0.8-0.1s0.4-0.2,0.6-0.3c0.2-0.1,0.3-0.3,0.4-0.5c0.1-0.2,0.1-0.4,0.1-0.7c0-0.5-0.2-0.9-0.5-1.2
					C19.5,18.1,19,18,18.4,18h-1.3V21.2z"/>
				<path class="st0" d="M30.5,21.1c0,0.6-0.1,1.1-0.3,1.6s-0.5,0.9-0.8,1.3c-0.3,0.4-0.8,0.6-1.2,0.8s-1,0.3-1.6,0.3
					c-0.6,0-1.1-0.1-1.6-0.3s-0.9-0.5-1.2-0.8c-0.3-0.4-0.6-0.8-0.8-1.3s-0.3-1-0.3-1.6c0-0.6,0.1-1.1,0.3-1.6s0.5-0.9,0.8-1.3
					c0.3-0.4,0.8-0.6,1.2-0.8c0.5-0.2,1-0.3,1.6-0.3c0.6,0,1.1,0.1,1.6,0.3c0.5,0.2,0.9,0.5,1.2,0.8c0.3,0.4,0.6,0.8,0.8,1.3
					S30.5,20.5,30.5,21.1z M29.4,21.1c0-0.5-0.1-0.9-0.2-1.3c-0.1-0.4-0.3-0.7-0.6-1c-0.2-0.3-0.5-0.5-0.9-0.6
					C27.4,18,27,18,26.6,18c-0.4,0-0.8,0.1-1.1,0.2s-0.6,0.3-0.9,0.6s-0.4,0.6-0.6,1c-0.1,0.4-0.2,0.8-0.2,1.3
					c0,0.5,0.1,0.9,0.2,1.3c0.1,0.4,0.3,0.7,0.6,1c0.2,0.3,0.5,0.5,0.9,0.6c0.3,0.1,0.7,0.2,1.1,0.2c0.4,0,0.8-0.1,1.2-0.2
					c0.3-0.1,0.6-0.3,0.9-0.6c0.2-0.3,0.4-0.6,0.6-1C29.3,22,29.4,21.5,29.4,21.1z"/>
				<path class="st0" d="M31.5,17.1h0.9c0.1,0,0.2,0,0.2,0.1c0.1,0,0.1,0.1,0.1,0.2l1.6,5.5c0,0.1,0.1,0.2,0.1,0.3
					c0,0.1,0,0.2,0.1,0.4c0-0.1,0.1-0.2,0.1-0.4c0-0.1,0.1-0.2,0.1-0.3l1.9-5.5c0-0.1,0.1-0.1,0.1-0.2s0.1-0.1,0.2-0.1h0.3
					c0.1,0,0.2,0,0.2,0.1c0.1,0,0.1,0.1,0.1,0.2l1.8,5.5c0,0.1,0.1,0.2,0.1,0.3c0,0.1,0.1,0.2,0.1,0.3c0-0.1,0-0.2,0.1-0.3
					c0-0.1,0-0.2,0.1-0.3l1.6-5.5c0-0.1,0.1-0.1,0.1-0.2c0.1-0.1,0.1-0.1,0.2-0.1h0.8L40.1,25h-1l-2-6c0-0.1-0.1-0.2-0.1-0.4
					c0,0.1,0,0.1-0.1,0.2c0,0.1,0,0.1-0.1,0.2l-2,6h-1L31.5,17.1z"/>
				<path class="st0" d="M49.1,17.1V18h-3.8v2.6h3.1v0.8h-3.1v2.7h3.8l0,0.9h-4.9v-7.9H49.1z"/>
				<path class="st0" d="M52.1,21.7V25h-1.1v-7.9h2.2c0.5,0,0.9,0.1,1.3,0.2c0.4,0.1,0.7,0.2,0.9,0.4s0.4,0.4,0.5,0.7
					c0.1,0.3,0.2,0.6,0.2,0.9c0,0.3,0,0.5-0.1,0.8c-0.1,0.2-0.2,0.5-0.4,0.7c-0.2,0.2-0.4,0.4-0.6,0.5s-0.5,0.2-0.8,0.3
					c0.1,0.1,0.3,0.2,0.4,0.3l2.3,3.1H56c-0.2,0-0.3-0.1-0.4-0.2l-2-2.8c-0.1-0.1-0.1-0.2-0.2-0.2c-0.1,0-0.2-0.1-0.3-0.1H52.1z
					 M52.1,20.9h1.1c0.3,0,0.6,0,0.8-0.1c0.2-0.1,0.4-0.2,0.6-0.3c0.2-0.1,0.3-0.3,0.4-0.5s0.1-0.4,0.1-0.6c0-0.5-0.2-0.8-0.5-1.1
					S53.9,18,53.3,18h-1.2V20.9z"/>
				<path class="st0" d="M63.3,17.1V18h-3.8v2.6h3.1v0.8h-3.1v2.7h3.8l0,0.9h-4.9v-7.9H63.3z"/>
				<path class="st0" d="M72.2,21.1c0,0.6-0.1,1.1-0.3,1.6c-0.2,0.5-0.5,0.9-0.8,1.2c-0.3,0.3-0.8,0.6-1.2,0.8s-1,0.3-1.6,0.3h-2.9
					v-7.9h2.9c0.6,0,1.1,0.1,1.6,0.3c0.5,0.2,0.9,0.5,1.2,0.8c0.3,0.3,0.6,0.8,0.8,1.2C72.1,19.9,72.2,20.5,72.2,21.1z M71.1,21.1
					c0-0.5-0.1-0.9-0.2-1.3c-0.1-0.4-0.3-0.7-0.6-1c-0.2-0.3-0.5-0.5-0.9-0.6c-0.3-0.1-0.7-0.2-1.2-0.2h-1.9v6.2h1.9
					c0.4,0,0.8-0.1,1.2-0.2c0.3-0.1,0.6-0.3,0.9-0.6c0.2-0.3,0.4-0.6,0.6-1C71,22,71.1,21.5,71.1,21.1z"/>
				<path class="st0" d="M77.5,25v-7.9H80c0.5,0,0.9,0,1.3,0.1c0.4,0.1,0.6,0.2,0.9,0.4c0.2,0.2,0.4,0.4,0.5,0.6s0.2,0.5,0.2,0.9
					c0,0.2,0,0.4-0.1,0.6s-0.2,0.3-0.3,0.5c-0.1,0.2-0.3,0.3-0.5,0.4s-0.4,0.2-0.7,0.3c0.6,0.1,1,0.3,1.3,0.6s0.4,0.7,0.4,1.2
					c0,0.3-0.1,0.6-0.2,0.9c-0.1,0.3-0.3,0.5-0.5,0.7c-0.2,0.2-0.5,0.4-0.9,0.5S80.7,25,80.3,25H77.5z M78.6,20.6H80
					c0.3,0,0.6,0,0.8-0.1c0.2-0.1,0.4-0.2,0.5-0.3c0.1-0.1,0.3-0.3,0.3-0.4c0.1-0.2,0.1-0.3,0.1-0.5c0-0.5-0.1-0.8-0.4-1
					C81,18.1,80.6,18,80,18h-1.5V20.6z M78.6,21.4v2.7h1.7c0.3,0,0.6,0,0.8-0.1c0.2-0.1,0.4-0.2,0.5-0.3c0.1-0.1,0.2-0.3,0.3-0.5
					c0.1-0.2,0.1-0.4,0.1-0.6c0-0.4-0.1-0.7-0.4-1c-0.3-0.2-0.7-0.4-1.3-0.4H78.6z"/>
			</g>
			<g class="st2">
				<path class="st0" d="M88.1,21.9V25H87v-3.1l-2.9-4.7h0.9c0.1,0,0.2,0,0.2,0.1s0.1,0.1,0.1,0.2l1.8,3.1c0.1,0.1,0.1,0.2,0.2,0.4
					c0.1,0.1,0.1,0.2,0.1,0.3c0-0.1,0.1-0.2,0.1-0.3c0.1-0.1,0.1-0.2,0.2-0.4l1.8-3.1c0-0.1,0.1-0.1,0.1-0.2
					c0.1-0.1,0.1-0.1,0.2-0.1H91L88.1,21.9z"/>
			</g>
		</g>
	</g>
</g>
</svg>

<?xml version="1.0" encoding="UTF-8" standalone="no"?>
<!DOCTYPE svg PUBLIC "-//W3C//DTD SVG 1.1//EN" "http://www.w3.org/Graphics/SVG/1.1/DTD/svg11.dtd">
<svg width="100%" height="100%" viewBox="0 0 188 42" version="1.1" xmlns="http://www.w3.org/2000/svg" xmlns:xlink="http://www.w3.org/1999/xlink" xml:space="preserve" xmlns:serif="http://www.serif.com/" style="fill-rule:evenodd;clip-rule:evenodd;stroke-linejoin:round;stroke-miterlimit:2;">
    <g transform="matrix(1,0,0,1,1,1)">
        <g id="Welcome">
            <g id="katrina">
                <g id="awery">
                    <g id="awery_aviation_software_logotype_white" transform="matrix(1,0,0,1,101,13)">
                        <path id="Path" d="M51,6.2L57.1,13.2L56,13.2L49.9,6.2L51,6.2Z" style="fill:rgb(212,159,117);"/>
                        <rect x="33.5" y="0" width="10.6" height="1" style="fill:rgb(212,159,117);"/>
                        <rect x="63.7" y="6.6" width="1" height="6.6" style="fill:rgb(212,159,117);"/>
                        <path d="M30.7,0L29.8,0L25.4,11.2L21,0L16.5,11.2L12.1,0L11.2,0L16.5,13.2L20.9,2.2L25.4,13.2L30.7,0Z" style="fill:rgb(212,159,117);"/>
                        <path d="M52.5,0.9C54,0.9 55.2,2.1 55.2,3.6C55.2,5.1 54,6.2 52.5,6.2L49.8,6.2L50.6,7.1L52.5,7.1C54.5,7.1 56,5.6 56,3.6C56,1.6 54.5,0 52.5,0L46.3,0L47.1,0.9L52.5,0.9" style="fill:rgb(212,159,117);"/>
                        <path d="M64.1,7.5L69.9,0L68.9,0L64.1,6.2L59.5,0L58.4,0L64.1,7.5Z" style="fill:rgb(212,159,117);"/>
                        <path d="M5.7,9.7L1.8,9.7L2.2,8.8L5.4,8.8L5.7,9.7Z" style="fill:rgb(212,159,117);"/>
                        <path d="M1.8,8.8L0,13.2L0.9,13.2L2.6,8.8L1.8,8.8Z" style="fill:rgb(212,159,117);"/>
                        <path d="M5.3,0L2.1,8L3,8L5.3,2L9.7,13.2L10.6,13.2L5.3,0Z" style="fill:rgb(212,159,117);"/>
                        <rect x="33.5" y="12.3" width="10.6" height="1" style="fill:rgb(212,159,117);"/>
                        <rect x="33.5" y="6.2" width="10.6" height="1" style="fill:rgb(212,159,117);"/>
                    </g>
                    <g>
                        <path d="M17.1,22.1L17.1,25L16,25L16,17.1L18.3,17.1C18.8,17.1 19.2,17.2 19.6,17.3C20,17.4 20.3,17.6 20.5,17.8C20.7,18 20.9,18.3 21,18.6C21.1,18.9 21.2,19.2 21.2,19.6C21.2,20 21.1,20.3 21,20.6C20.9,20.9 20.7,21.2 20.4,21.4C20.1,21.6 19.8,21.8 19.5,21.9C19.1,22 18.7,22.1 18.2,22.1L17.1,22.1ZM17.1,21.2L18.4,21.2C18.7,21.2 19,21.2 19.2,21.1C19.4,21 19.6,20.9 19.8,20.8C20,20.7 20.1,20.5 20.2,20.3C20.3,20.1 20.3,19.9 20.3,19.6C20.3,19.1 20.1,18.7 19.8,18.4C19.5,18.1 19,18 18.4,18L17.1,18L17.1,21.2Z" style="fill:rgb(212,159,117);fill-rule:nonzero;"/>
                        <path d="M30.5,21.1C30.5,21.7 30.4,22.2 30.2,22.7C30,23.2 29.7,23.6 29.4,24C29.1,24.4 28.6,24.6 28.2,24.8C27.8,25 27.2,25.1 26.6,25.1C26,25.1 25.5,25 25,24.8C24.5,24.6 24.1,24.3 23.8,24C23.5,23.6 23.2,23.2 23,22.7C22.8,22.2 22.7,21.7 22.7,21.1C22.7,20.5 22.8,20 23,19.5C23.2,19 23.5,18.6 23.8,18.2C24.1,17.8 24.6,17.6 25,17.4C25.5,17.2 26,17.1 26.6,17.1C27.2,17.1 27.7,17.2 28.2,17.4C28.7,17.6 29.1,17.9 29.4,18.2C29.7,18.6 30,19 30.2,19.5C30.4,20 30.5,20.5 30.5,21.1ZM29.4,21.1C29.4,20.6 29.3,20.2 29.2,19.8C29.1,19.4 28.9,19.1 28.6,18.8C28.4,18.5 28.1,18.3 27.7,18.2C27.4,18 27,18 26.6,18C26.2,18 25.8,18.1 25.5,18.2C25.2,18.3 24.9,18.5 24.6,18.8C24.3,19.1 24.2,19.4 24,19.8C23.9,20.2 23.8,20.6 23.8,21.1C23.8,21.6 23.9,22 24,22.4C24.1,22.8 24.3,23.1 24.6,23.4C24.8,23.7 25.1,23.9 25.5,24C25.8,24.1 26.2,24.2 26.6,24.2C27,24.2 27.4,24.1 27.8,24C28.1,23.9 28.4,23.7 28.7,23.4C28.9,23.1 29.1,22.8 29.3,22.4C29.3,22 29.4,21.5 29.4,21.1Z" style="fill:rgb(212,159,117);fill-rule:nonzero;"/>
                        <path d="M31.5,17.1L32.4,17.1C32.5,17.1 32.6,17.1 32.6,17.2C32.7,17.2 32.7,17.3 32.7,17.4L34.3,22.9C34.3,23 34.4,23.1 34.4,23.2C34.4,23.3 34.4,23.4 34.5,23.6C34.5,23.5 34.6,23.4 34.6,23.2C34.6,23.1 34.7,23 34.7,22.9L36.6,17.4C36.6,17.3 36.7,17.3 36.7,17.2C36.7,17.1 36.8,17.1 36.9,17.1L37.2,17.1C37.3,17.1 37.4,17.1 37.4,17.2C37.5,17.2 37.5,17.3 37.5,17.4L39.3,22.9C39.3,23 39.4,23.1 39.4,23.2C39.4,23.3 39.5,23.4 39.5,23.5C39.5,23.4 39.5,23.3 39.6,23.2C39.6,23.1 39.6,23 39.7,22.9L41.3,17.4C41.3,17.3 41.4,17.3 41.4,17.2C41.5,17.1 41.5,17.1 41.6,17.1L42.4,17.1L40.1,25L39.1,25L37.1,19C37.1,18.9 37,18.8 37,18.6L36.8,19L34.8,25L33.8,25L31.5,17.1Z" style="fill:rgb(212,159,117);fill-rule:nonzero;"/>
                        <path d="M49.1,17.1L49.1,18L45.3,18L45.3,20.6L48.4,20.6L48.4,21.4L45.3,21.4L45.3,24.1L49.1,24.1L49.1,25L44.2,25L44.2,17.1L49.1,17.1Z" style="fill:rgb(212,159,117);fill-rule:nonzero;"/>
                        <path d="M52.1,21.7L52.1,25L51,25L51,17.1L53.2,17.1C53.7,17.1 54.1,17.2 54.5,17.3C54.9,17.4 55.2,17.5 55.4,17.7C55.6,17.9 55.8,18.1 55.9,18.4C56,18.7 56.1,19 56.1,19.3C56.1,19.6 56.1,19.8 56,20.1C55.9,20.3 55.8,20.6 55.6,20.8C55.4,21 55.2,21.2 55,21.3C54.8,21.4 54.5,21.5 54.2,21.6C54.3,21.7 54.5,21.8 54.6,21.9L56.9,25L56,25C55.8,25 55.7,24.9 55.6,24.8L53.6,22C53.5,21.9 53.5,21.8 53.4,21.8C53.3,21.8 53.2,21.7 53.1,21.7L52.1,21.7ZM52.1,20.9L53.2,20.9C53.5,20.9 53.8,20.9 54,20.8C54.2,20.7 54.4,20.6 54.6,20.5C54.8,20.4 54.9,20.2 55,20C55.1,19.8 55.1,19.6 55.1,19.4C55.1,18.9 54.9,18.6 54.6,18.3C54.3,18 53.9,18 53.3,18L52.1,18L52.1,20.9Z" style="fill:rgb(212,159,117);fill-rule:nonzero;"/>
                        <path d="M63.3,17.1L63.3,18L59.5,18L59.5,20.6L62.6,20.6L62.6,21.4L59.5,21.4L59.5,24.1L63.3,24.1L63.3,25L58.4,25L58.4,17.1L63.3,17.1Z" style="fill:rgb(212,159,117);fill-rule:nonzero;"/>
                        <path d="M72.2,21.1C72.2,21.7 72.1,22.2 71.9,22.7C71.7,23.2 71.4,23.6 71.1,23.9C70.8,24.2 70.3,24.5 69.9,24.7C69.5,24.9 68.9,25 68.3,25L65.4,25L65.4,17.1L68.3,17.1C68.9,17.1 69.4,17.2 69.9,17.4C70.4,17.6 70.8,17.9 71.1,18.2C71.4,18.5 71.7,19 71.9,19.4C72.1,19.9 72.2,20.5 72.2,21.1ZM71.1,21.1C71.1,20.6 71,20.2 70.9,19.8C70.8,19.4 70.6,19.1 70.3,18.8C70.1,18.5 69.8,18.3 69.4,18.2C69.1,18.1 68.7,18 68.2,18L66.3,18L66.3,24.2L68.2,24.2C68.6,24.2 69,24.1 69.4,24C69.7,23.9 70,23.7 70.3,23.4C70.5,23.1 70.7,22.8 70.9,22.4C71,22 71.1,21.5 71.1,21.1Z" style="fill:rgb(212,159,117);fill-rule:nonzero;"/>
                        <path d="M77.5,25L77.5,17.1L80,17.1C80.5,17.1 80.9,17.1 81.3,17.2C81.7,17.3 81.9,17.4 82.2,17.6C82.4,17.8 82.6,18 82.7,18.2C82.8,18.4 82.9,18.7 82.9,19.1C82.9,19.3 82.9,19.5 82.8,19.7C82.7,19.9 82.6,20 82.5,20.2C82.4,20.4 82.2,20.5 82,20.6C81.8,20.7 81.6,20.8 81.3,20.9C81.9,21 82.3,21.2 82.6,21.5C82.9,21.8 83,22.2 83,22.7C83,23 82.9,23.3 82.8,23.6C82.7,23.9 82.5,24.1 82.3,24.3C82.1,24.5 81.8,24.7 81.4,24.8C81,24.9 80.7,25 80.3,25L77.5,25ZM78.5,20.6L80,20.6C80.3,20.6 80.6,20.6 80.8,20.5C81,20.4 81.2,20.3 81.3,20.2C81.4,20.1 81.6,19.9 81.6,19.8C81.7,19.6 81.7,19.5 81.7,19.3C81.7,18.8 81.6,18.5 81.3,18.3C81,18.1 80.6,18 80,18L78.5,18L78.5,20.6ZM78.6,21.2L78.6,24.1L80.3,24.1C80.6,24.1 80.9,24.1 81.1,24C81.3,23.9 81.5,23.8 81.6,23.7C81.7,23.6 81.8,23.4 81.9,23.2C82,23 82,22.8 82,22.6C82,22.2 81.9,21.9 81.6,21.6C81.3,21.4 80.9,21.2 80.3,21.2L78.6,21.2Z" style="fill:rgb(212,159,117);fill-rule:nonzero;"/>
                    </g>
                    <g>
                        <path d="M88.1,21.9L88.1,25L87,25L87,21.9L84.1,17.2L85,17.2C85.1,17.2 85.2,17.2 85.2,17.3C85.2,17.4 85.3,17.4 85.3,17.5L87.1,20.6C87.2,20.7 87.2,20.8 87.3,21C87.4,21.1 87.4,21.2 87.4,21.3C87.4,21.2 87.5,21.1 87.5,21C87.6,20.9 87.6,20.8 87.7,20.6L89.5,17.5C89.5,17.4 89.6,17.4 89.6,17.3C89.7,17.2 89.7,17.2 89.8,17.2L91,17.2L88.1,21.9Z" style="fill:rgb(212,159,117);fill-rule:nonzero;"/>
                    </g>
                </g>
            </g>
        </g>
    </g>
</svg>
